!!!OTL: Da guang deng
!!!ARE: Asia, China,ÿHebei, Jingyian
!! IV, 94
!!!SCT: C1649
!!!YEM: Copyright 1995, estate of Helmut Schaffrath.
**kern
*ICvox
*Ivox
*M2/4
*k[f#]
*G:
{8dd
8ee
4dd
=1
8dd
8ee
4dd
=2
8dd
8ee
4dd
=3
8dd
8ee
4dd}
=4
{8.gg
16ee
8gg
16gg
16ee
=5
8dd
8ee
4dd}
=6
{8.dd
16ee
8dd
8ee
=7
4gg
8ee
8dd
=8
8r
8g
8g
8a
=9
4dd
8b
8a}
=10
{8r
4dd
8a
=11
8.b
16a
8dd
8e
=12
4g
8dd
8dd
=13
16e
16g
16a
16b
4g}
==
!!!AGN: Wuge, Taipingqiao
!!!AMT: simple duple
!!!AIN: vox
!!!EED: Helmut Schaffrath
!!!EEV: 1.0
*-
